X: 3304
T:Gallowglass, The
R:Jig
S:Paddy Canny, Clare (fiddle)
N:As played
D:Home tape of unknown provenance
Z:Bernie Stocks
M:6/8
L:1/8
K:F
A|:{d}BAG dAc|BGG G2A|{d}BAG def|cAF FGA|!
~B2G dAc|BGB d2c|BAG ^FGA|1 {d}BGG G2A:|2 {d}BGG G3||!
{a}g^fg  (3ded c|BGG G2A|{d}BAG def|cAF F2g|!
{a}g^fg d2c|BGG dcA|BAG ^FGA|BGG G2g|!
{a}g^fg  (3ded c|BGG G2A|{d}BAG def|cAF F2g|!
{a}gdg fdf|ecA BGD|_EGB dAc|BGG G3||!
